UI/POI/SVG/bowling_solid_24px.svg

<svg width="24" height="24" viewBox="0 0 24 24" fill="none" xmlns="http://www.w3.org/2000/svg">
<path d="M14.5 7C13.5363 6.99683 12.5814 7.18373 11.69 7.55C11.58 7.97 11.45 8.38 11.33 8.77C11.21 9.16 11.12 9.45 11.05 9.77C11.2062 10.0163 11.3765 10.2533 11.56 10.48C12.4471 11.4424 12.9582 12.6918 13 14C12.9767 14.674 12.8863 15.344 12.73 16C12.8193 15.9847 12.9107 15.9847 13 16C13.2652 16 13.5196 16.1054 13.7071 16.2929C13.8946 16.4804 14 16.7348 14 17C14 17.2652 13.8946 17.5196 13.7071 17.7071C13.5196 17.8946 13.2652 18 13 18C12.7474 17.9991 12.5044 17.9027 12.32 17.73C12.1 18.53 11.84 19.4 11.56 20.33C11.46 20.66 11.37 20.98 11.28 21.26C12.2821 21.7512 13.384 22.0044 14.5 22C16.4891 22 18.3968 21.2098 19.8033 19.8033C21.2098 18.3968 22 16.4891 22 14.5C22 12.5109 21.2098 10.6032 19.8033 9.1967C18.3968 7.79018 16.4891 7 14.5 7ZM15 14C14.8022 14 14.6089 13.9414 14.4444 13.8315C14.28 13.7216 14.1518 13.5654 14.0761 13.3827C14.0004 13.2 13.9806 12.9989 14.0192 12.8049C14.0578 12.6109 14.153 12.4327 14.2929 12.2929C14.4327 12.153 14.6109 12.0578 14.8049 12.0192C14.9989 11.9806 15.2 12.0004 15.3827 12.0761C15.5654 12.1518 15.7216 12.28 15.8315 12.4444C15.9414 12.6089 16 12.8022 16 13C16 13.2652 15.8946 13.5196 15.7071 13.7071C15.5196 13.8946 15.2652 14 15 14ZM17 17C16.8022 17 16.6089 16.9414 16.4444 16.8315C16.28 16.7216 16.1518 16.5654 16.0761 16.3827C16.0004 16.2 15.9806 15.9989 16.0192 15.8049C16.0578 15.6109 16.153 15.4327 16.2929 15.2929C16.4327 15.153 16.6109 15.0578 16.8049 15.0192C16.9989 14.9806 17.2 15.0004 17.3827 15.0761C17.5654 15.1518 17.7216 15.28 17.8315 15.4444C17.9414 15.6089 18 15.8022 18 16C18 16.2652 17.8946 16.5196 17.7071 16.7071C17.5196 16.8946 17.2652 17 17 17ZM11 14C11.0048 14.0866 11.0048 14.1734 11 14.26C11.0049 14.3499 11.0049 14.4401 11 14.53C11.0043 14.5866 11.0043 14.6434 11 14.7C11 14.8 11 14.9 11 15C11 15.1 10.92 15.41 10.87 15.64C10.82 15.87 10.76 16.13 10.7 16.39C10.56 16.93 10.41 17.5 10.24 18.06C10.2006 18.2362 10.1505 18.4099 10.09 18.58C9.94 19.12 9.78 19.64 9.64 20.11C9.64 20.24 9.56 20.37 9.53 20.49C9.5 20.61 9.44 20.77 9.41 20.9L9.3 21.27C9.23951 21.4863 9.10797 21.6759 8.92656 21.8084C8.74515 21.9408 8.52445 22.0083 8.3 22H4.76C4.53555 22.0083 4.31485 21.9408 4.13344 21.8084C3.95203 21.6759 3.82049 21.4863 3.76 21.27C3.29 19.43 2 15.6 2 14C2 12.21 3.49 11.62 4 10C4 9 3 7 3 5.5C3 4.57174 3.36875 3.6815 4.02513 3.02513C4.6815 2.36875 5.57174 2 6.5 2C7.42826 2 8.3185 2.36875 8.97487 3.02513C9.63125 3.6815 10 4.57174 10 5.5C10.0109 5.66649 10.0109 5.83351 10 6C9.98231 6.16467 9.9556 6.32825 9.92 6.49C9.84234 6.88539 9.74218 7.27602 9.62 7.66L9.44 8.27C9.32 8.65 9.21 9.02 9.13 9.34V9.51C9.12119 9.56632 9.12119 9.62368 9.13 9.68C9.07709 9.78252 9.03358 9.88963 9 10C9.51 11.62 11 12.21 11 14Z" fill="#0F1621"/>
</svg>

<svg xmlns="http://www.w3.org/2000/svg" width="24" height="24" viewBox="0 0 24 24"><rect width="24" height="24" style="fill:none"/><path d="M14.5,7a7.33,7.33,0,0,0-2.81.55c-.11.42-.24.83-.36,1.22s-.21.68-.28,1a7.58,7.58,0,0,0,.51.71A5.45,5.45,0,0,1,13,14a10.14,10.14,0,0,1-.27,2A.8.8,0,0,1,13,16a1,1,0,0,1,0,2,1,1,0,0,1-.68-.27c-.22.8-.48,1.67-.76,2.6-.1.33-.19.65-.28.93A7.25,7.25,0,0,0,14.5,22a7.5,7.5,0,0,0,0-15Zm.5,7a1,1,0,1,1,1-1A1,1,0,0,1,15,14Zm2,3a1,1,0,1,1,1-1A1,1,0,0,1,17,17Zm-6-3a2.35,2.35,0,0,1,0,.26,2.48,2.48,0,0,1,0,.27,1.11,1.11,0,0,1,0,.17c0,.1,0,.2,0,.3s-.08.41-.13.64-.11.49-.17.75c-.14.54-.29,1.11-.46,1.67a4.44,4.44,0,0,1-.15.52c-.15.54-.31,1.06-.45,1.53,0,.13-.08.26-.11.38s-.09.28-.12.41l-.11.37a1,1,0,0,1-1,.73H4.76a1,1,0,0,1-1-.73C3.29,19.43,2,15.6,2,14c0-1.79,1.49-2.38,2-4C4,9,3,7,3,5.5a3.5,3.5,0,0,1,7,0A3.83,3.83,0,0,1,10,6a4.53,4.53,0,0,1-.08.49,10.59,10.59,0,0,1-.3,1.17l-.18.61c-.12.38-.23.75-.31,1.07a0,0,0,0,1,0,0l0,.17a.55.55,0,0,0,0,.17A1.91,1.91,0,0,0,9,10C9.51,11.62,11,12.21,11,14Z"/></svg>
